X:1
T:High On Atkin's Dike
C:C. Kaynor (20 Jan 2020)
M:2/4
L:1/16
K:Dm
%Q:1/4=110
[V:1] fg | "F"agab agfa | "C"gfef g2 ga | "C7"bagf edce | "F"ffaf "C7"gfgb |
[V:2] ce | fefg fcA2 | c2cd e2 ef | gfed c2G2 | Acfc Bcec |
[V:1] "F"agab agfa | "C"gfef g2 ga | "C7"bagf edcB |1 "F"AF"C"GE "F"F2 :|2 "F"AGFE "Dm"D2 ||
[V:2] fefg fcA2 | c2cd e2 ef | gfed cBAG | F2E2 F2 :| F2E2 D2 ||
[V:1] |: FE | "Dm"D(A,G,A,) D(A,G,A,) | "Dm"DA,FA, EA,DA, | "A"E(A,G,A,) E(A,G,A,) |
[V:2] |: DE | F4F4 | FDAD GDFD | G4G4 |
[V:1] "A7"EA,GA, FA,EA, | "Dm"D(A,G,A,) D(A,G,A,) | "Dm"DEFG A2GA | "C7"BdcB AGFE | "F"FEFG F2 :|
[V:2] GEAE AEAE | F4F4 | FDAD dDEF | G2cd cBAG | AGAB A2 :|
